X: 21
T:Dr Faustus' Tumblers
M:4/4
L:1/4
R:Polka
N:Posted to tradtunes list 10/03/2002
Z:Steve Mansfield August 2001
K:D
A | dAde | fdfg | a2 gf | e/d/e/f/ e A | dAde |
fdfg | a2 gf | "A" e3 :: A | A G/A/ FA | A G/A/ FA |
dcBe | c B/c/ Aa | a g/a/ ff | f e/f/ dd | Fd Ec | d3 :|
<end>
<start>
